X: 508
T: Polska efter Snickar Erik
S: efter Snickar-Erik Olsson
O: Emnebo, Ovanåkers socken, Hälsingland
B: EÖ, nr 508
R: Polska
Z: Nils L
M: 3/4
L: 1/8
K: G
GA  BG BG | BB  dB dB | dd cc BB | AA G2 D2 |  \
G>A BG BG | B>c dB dB | dd cc BB | AA G4    ::
BB AA AA | BB AA AA | BB cc BB | AA G2>D2  | \
BB AA AA | BB AA AA | BB cc BB | AA G4    :|

